justvector/tribe.net.svg

<?xml version="1.0" encoding="iso-8859-1"?>
<!-- Generator: Adobe Illustrator 15.0.0, SVG Export Plug-In . SVG Version: 6.00 Build 0)  -->
<!DOCTYPE svg PUBLIC "-//W3C//DTD SVG 1.1//EN" "http://www.w3.org/Graphics/SVG/1.1/DTD/svg11.dtd">
<svg version="1.1" id="Layer_1" xmlns="http://www.w3.org/2000/svg" xmlns:xlink="http://www.w3.org/1999/xlink" x="0px" y="0px"
	 width="100px" height="100px" viewBox="0 0 100 100" style="enable-background:new 0 0 100 100;" xml:space="preserve">
<path id="Tribe" d="M86.58,49.387c-0.848,0-1.662,0.131-2.434,0.363l-4.625-8.692c0.883-1.084,1.412-2.468,1.412-3.975
	c0-3.476-2.809-6.292-6.275-6.292c-2.051,0-3.865,0.988-5.01,2.513l-22.477-7.059c0.049-0.312,0.082-0.629,0.082-0.954
	c0-3.475-2.811-6.291-6.277-6.291c-3.465,0-6.277,2.816-6.277,6.291c0,0.479,0.061,0.944,0.16,1.394l-14.219,6.07
	c-1.471-2.461-4.15-4.113-7.219-4.113C8.771,28.642,5,32.42,5,37.083c0,4.66,3.771,8.439,8.422,8.439
	c1.486,0,2.881-0.39,4.092-1.067l13.9,17.139c-0.834,1.761-1.305,3.729-1.305,5.812C30.109,74.912,36.18,81,43.67,81
	c6.625,0,12.133-4.765,13.318-11.061h0.006l22.17-8.115c1.422,2.644,4.209,4.443,7.416,4.443c4.65,0,8.42-3.779,8.42-8.439
	C95,53.165,91.23,49.387,86.58,49.387z M21.709,38.534c0.064-0.384,0.101-0.777,0.117-1.177l14.5-7.853
	c1.148,1.273,2.803,2.078,4.65,2.078c1.686,0,3.211-0.669,4.34-1.752l3.746,1.245c-8.699,0.57-15.588,7.805-15.588,16.672
	c0,1.565,0.219,3.078,0.625,4.514L21.709,38.534z M35.773,56.367v-0.189c0.027,0.046,0.049,0.092,0.074,0.134
	C35.822,56.329,35.799,56.35,35.773,56.367z M54.484,59.226c-2.477-3.285-6.393-5.415-10.814-5.415
	c-1.324,0-2.602,0.199-3.813,0.555c-1.223-1.911-1.941-4.178-1.941-6.617c0-6.78,5.482-12.277,12.248-12.277
	c6.762,0,12.246,5.497,12.246,12.277C62.41,53.003,59.111,57.472,54.484,59.226z M78.627,55.073l-20.291,7.249l-0.008,0.001
	c5.082-2.866,8.523-8.313,8.523-14.575c0-5.09-2.277-9.642-5.857-12.709l7.406,2.46c0.215,3.28,2.934,5.875,6.258,5.875
	c0.504,0,0.99-0.065,1.463-0.178l4.822,8.375C79.904,52.516,79.096,53.715,78.627,55.073z"/>
</svg>

<?xml version="1.0" encoding="UTF-8" standalone="no"?>
<!DOCTYPE svg PUBLIC "-//W3C//DTD SVG 1.1//EN" "http://www.w3.org/Graphics/SVG/1.1/DTD/svg11.dtd">
<svg width="100%" height="100%" viewBox="0 0 100 100" version="1.1" xmlns="http://www.w3.org/2000/svg" xmlns:xlink="http://www.w3.org/1999/xlink" xml:space="preserve" xmlns:serif="http://www.serif.com/" style="fill-rule:evenodd;clip-rule:evenodd;stroke-linejoin:round;stroke-miterlimit:2;">
    <path id="Tribe" d="M86.58,49.387C85.732,49.387 84.918,49.518 84.146,49.75L79.521,41.058C80.404,39.974 80.933,38.59 80.933,37.083C80.933,33.607 78.124,30.791 74.658,30.791C72.607,30.791 44.442,19 40.976,19C37.511,19 34.699,21.816 34.699,25.291C34.699,25.77 34.76,26.235 34.859,26.685C34.859,26.685 16.49,28.642 13.421,28.642C8.771,28.642 5,32.42 5,37.083C5,41.743 8.771,45.522 13.422,45.522C14.908,45.522 16.303,45.132 17.514,44.455C17.514,44.455 30.109,65.323 30.109,67.406C30.109,74.912 36.18,81 43.67,81C50.295,81 55.803,76.235 56.988,69.939L56.994,69.939L79.164,61.824C80.586,64.468 83.373,66.267 86.58,66.267C91.23,66.267 95,62.488 95,57.828C95,53.165 91.23,49.387 86.58,49.387ZM80.943,51.571C79.904,52.516 58.336,62.322 58.336,62.322L58.328,62.323C63.41,59.457 64.574,38.106 60.994,35.039C60.994,35.039 71.334,43.374 74.658,43.374C75.162,43.374 75.648,43.309 76.121,43.196L80.943,51.571Z" style="fill-rule:nonzero;"/>
</svg>
